Numix/22/emotes/face-kiss.svg

<?xml version="1.0" encoding="UTF-8" standalone="no"?>
<svg
   xmlns:dc="http://purl.org/dc/elements/1.1/"
   xmlns:cc="http://creativecommons.org/ns#"
   xmlns:rdf="http://www.w3.org/1999/02/22-rdf-syntax-ns#"
   xmlns:svg="http://www.w3.org/2000/svg"
   xmlns="http://www.w3.org/2000/svg"
   xmlns:sodipodi="http://sodipodi.sourceforge.net/DTD/sodipodi-0.dtd"
   xmlns:inkscape="http://www.inkscape.org/namespaces/inkscape"
   width="22px"
   height="22px"
   viewBox="0 0 18 18"
   version="1.1"
   id="svg1391"
   inkscape:version="0.91 r"
   sodipodi:docname="face-kiss.svg">
  <metadata
     id="metadata1408">
    <rdf:RDF>
      <cc:Work
         rdf:about="">
        <dc:format>image/svg+xml</dc:format>
        <dc:type
           rdf:resource="http://purl.org/dc/dcmitype/StillImage" />
      </cc:Work>
    </rdf:RDF>
  </metadata>
  <defs
     id="defs1406" />
  <sodipodi:namedview
     pagecolor="#ffffff"
     bordercolor="#666666"
     borderopacity="1"
     objecttolerance="10"
     gridtolerance="10"
     guidetolerance="10"
     inkscape:pageopacity="0"
     inkscape:pageshadow="2"
     inkscape:window-width="640"
     inkscape:window-height="480"
     id="namedview1404" />
  <g
     id="surface1">
    <path
       style=" stroke:none;fill-rule:nonzero;fill:rgb(100%,85.490196%,36.862745%);fill-opacity:1;"
       d="M 15.75 9 C 15.75 12.210938 12.726562 14.8125 9 14.8125 C 5.273438 14.8125 2.25 12.210938 2.25 9 C 2.25 5.789062 5.273438 3.1875 9 3.1875 C 12.726562 3.1875 15.75 5.789062 15.75 9 Z M 15.75 9 "
       id="path1394" />
    <path
       style=" stroke:none;fill-rule:nonzero;fill:rgb(39.607843%,39.607843%,39.607843%);fill-opacity:1;"
       d="M 6.75 6.75 C 6.230469 6.75 5.8125 7.167969 5.8125 7.6875 C 5.8125 7.78125 5.828125 7.875 5.855469 7.96875 C 5.980469 7.578125 6.339844 7.3125 6.75 7.3125 C 7.160156 7.3125 7.519531 7.578125 7.644531 7.96875 C 7.671875 7.878906 7.6875 7.785156 7.6875 7.6875 C 7.6875 7.167969 7.269531 6.75 6.75 6.75 Z M 6.75 6.75 "
       id="path1396" />
    <path
       style=" stroke:none;fill-rule:nonzero;fill:rgb(39.607843%,39.607843%,39.607843%);fill-opacity:1;"
       d="M 12.1875 7.6875 C 12.1875 8.207031 11.769531 8.625 11.25 8.625 C 10.730469 8.625 10.3125 8.207031 10.3125 7.6875 C 10.3125 7.167969 10.730469 6.75 11.25 6.75 C 11.769531 6.75 12.1875 7.167969 12.1875 7.6875 Z M 12.1875 7.6875 "
       id="path1398" />
    <path
       style=" stroke:none;fill-rule:nonzero;fill:rgb(100%,40%,40%);fill-opacity:1;"
       d="M 10.753906 10.765625 C 10.742188 10.71875 10.707031 10.617188 10.675781 10.539062 C 10.582031 10.3125 10.566406 10.28125 10.535156 10.179688 C 10.476562 9.988281 10.492188 9.839844 10.582031 9.679688 C 10.628906 9.601562 10.648438 9.574219 10.699219 9.539062 C 10.78125 9.484375 10.867188 9.457031 10.957031 9.460938 C 11.023438 9.464844 11.054688 9.46875 11.136719 9.515625 C 11.222656 9.566406 11.234375 9.585938 11.269531 9.644531 C 11.3125 9.710938 11.332031 9.820312 11.316406 9.882812 L 11.304688 9.917969 L 11.351562 9.886719 C 11.609375 9.703125 11.96875 9.914062 11.949219 10.238281 C 11.941406 10.339844 11.847656 10.511719 11.757812 10.585938 C 11.640625 10.683594 11.5 10.730469 11.214844 10.757812 C 11.027344 10.777344 10.796875 10.835938 10.773438 10.851562 C 10.75 10.867188 10.773438 10.855469 10.753906 10.765625 Z M 10.753906 10.765625 "
       id="path1400" />
    <path
       style=" stroke:none;fill-rule:nonzero;fill:rgb(39.607843%,39.607843%,39.607843%);fill-opacity:1;"
       d="M 8.394531 10.480469 C 8.863281 10.011719 9.394531 9.949219 9.636719 10.289062 C 9.78125 10.492188 9.292969 10.714844 9.292969 10.949219 C 9.292969 11.1875 9.535156 11.132812 9.613281 11.316406 C 9.375 12 8.625 11.625 8.394531 11.417969 C 8.746094 13.222656 10.46875 11.582031 9.789062 10.9375 C 10.726562 9.53125 8.953125 9.425781 8.394531 10.480469 Z M 8.394531 10.480469 "
       id="path1402" />
  </g>
</svg>

<svg xmlns="http://www.w3.org/2000/svg" width="22" height="22" viewBox="0 0 18 18">
 <g>
  <path d="m 15.75 9 c 0 3.211 -3.02 5.813 -6.75 5.813 c -3.727 0 -6.75 -2.602 -6.75 -5.813 c 0 -3.211 3.02 -5.813 6.75 -5.813 c 3.727 0 6.75 2.602 6.75 5.813 m 0 0" style="fill:#ffd95d;fill-opacity:1;stroke:none;fill-rule:nonzero"/>
  <path d="m 6.75 6.75 c -0.52 0 -0.938 0.418 -0.938 0.938 c 0 0.094 0.016 0.188 0.043 0.281 c 0.125 -0.391 0.484 -0.656 0.895 -0.656 c 0.41 0 0.77 0.266 0.895 0.656 c 0.027 -0.09 0.043 -0.184 0.043 -0.281 c 0 -0.52 -0.418 -0.938 -0.938 -0.938 m 0 0" style="fill:#646464;fill-opacity:1;stroke:none;fill-rule:nonzero"/>
  <path d="m 12.188 7.688 c 0 0.52 -0.418 0.938 -0.938 0.938 c -0.52 0 -0.938 -0.418 -0.938 -0.938 c 0 -0.52 0.418 -0.938 0.938 -0.938 c 0.52 0 0.938 0.418 0.938 0.938 m 0 0" style="fill:#646464;fill-opacity:1;stroke:none;fill-rule:nonzero"/>
  <path d="m 10.754 10.766 c -0.012 -0.047 -0.047 -0.148 -0.078 -0.227 c -0.094 -0.227 -0.109 -0.258 -0.141 -0.359 c -0.059 -0.191 -0.043 -0.34 0.047 -0.5 c 0.047 -0.078 0.066 -0.105 0.117 -0.141 c 0.082 -0.055 0.168 -0.082 0.258 -0.078 c 0.066 0.004 0.098 0.008 0.18 0.055 c 0.086 0.051 0.098 0.07 0.133 0.129 c 0.043 0.066 0.063 0.176 0.047 0.238 l -0.012 0.035 l 0.047 -0.031 c 0.258 -0.184 0.617 0.027 0.598 0.352 c -0.008 0.102 -0.102 0.273 -0.191 0.348 c -0.117 0.098 -0.258 0.145 -0.543 0.172 c -0.188 0.02 -0.418 0.078 -0.441 0.094 c -0.023 0.016 0 0.004 -0.02 -0.086 m 0 0" style="fill:#f66;fill-opacity:1;stroke:none;fill-rule:nonzero"/>
  <path d="m 8.395 10.48 c 0.469 -0.469 1 -0.531 1.242 -0.191 c 0.145 0.203 -0.344 0.426 -0.344 0.66 c 0 0.238 0.242 0.184 0.32 0.367 c -0.238 0.684 -0.988 0.309 -1.219 0.102 c 0.352 1.805 2.074 0.164 1.395 -0.48 c 0.938 -1.406 -0.836 -1.512 -1.395 -0.457 m 0 0" style="fill:#646464;fill-opacity:1;stroke:none;fill-rule:nonzero"/>
 </g>
</svg>
